svg/u1f37b.svg

<svg viewBox="0 0 128 128" xmlns="http://www.w3.org/2000/svg">
  <path d="M123.43,50.54c-2.44-9.55-4.56-13.75-8.91-14.56c-4.18-0.78-10.12,1.93-11.6,2.73 l-0.02-0.07c0,0,0.34-1.85-0.14-3.71s-2.4-2.61-2.95-2.47L25.58,43.38l-0.5,2.95l-0.94,4.73c-2.42-0.44-8.81-1.29-12.26,1.25 c-4.31,3.17-6.05,9-7.11,16.63S4.39,80.56,6.81,83.15c2.97,3.19,7.63,4.09,10.06,4.35l-1.4,7c0,0-1.72,0.62-2.75,3.5 c-1.03,2.88,0.34,5.63,0.34,5.63s2.87-5.06,25.01-1.15c22.47,3.97,23.51,8.84,23.51,8.84s1.24-1.24,2.2-4.19s-0.82-6.04-0.82-6.04 l4.32-19.08l4.32,11.8c0,0-1.6,1.94-0.89,4.74c0.85,3.37,8.84,10.23,28.64,2.77c19.63-7.41,20.25-17.85,19.12-21.09 c-0.77-2.22-3.36-2.81-3.36-2.81l-1.14-3.63c1.11-0.64,2.82-1.76,5.4-3.72C125.41,65.49,125.9,60.22,123.43,50.54z M11.12,76.72 c-1.51-4.61,1.06-16.21,3.25-17.92c3.24-2.53,6.67-1.3,8.31-0.45l-4.45,22.33C16.5,80.7,12.31,80.36,11.12,76.72z M117.94,59.61 c-0.5,3.92-4.89,5.42-6.59,5.86l-6.41-20.35c1.53-1.04,4.52-2.55,7.01-2.27C114.55,43.15,118.56,54.74,117.94,59.61z" opacity="0.5" fill="#FFFFFF"/>
  <path d="M123.43,50.54c-2.44-9.55-4.61-13.52-8.91-14.56c-5.97-1.45-11.62,2.66-11.62,2.66 s0.34-1.85-0.14-3.71s-2.4-2.61-2.95-2.47L25.58,43.38l-0.5,2.95l-0.94,4.73c-2.42-0.44-8.81-1.29-12.26,1.25 c-4.31,3.17-6.05,9-7.11,16.63S4.39,80.56,6.81,83.15c2.97,3.19,7.63,4.09,10.06,4.35l-1.4,7c0,0-1.72,0.62-2.75,3.5 c-1.03,2.88,0.34,5.63,0.34,5.63s1.54-2.53,10.47-2.57c3.56-0.02,8.24,0.29,14.54,1.42c21.97,3.94,23.51,8.84,23.51,8.84 s1.24-1.24,2.2-4.19s-0.82-6.04-0.82-6.04l4.32-19.08l4.32,11.8c0,0-1.6,1.94-0.89,4.74c0.85,3.37,8.84,10.23,28.64,2.77 c19.63-7.41,20.25-17.85,19.12-21.09c-0.77-2.22-3.36-2.81-3.36-2.81l-1.14-3.63c1.11-0.64,2.82-1.76,5.4-3.72 C125.41,65.49,125.9,60.22,123.43,50.54z M11.12,76.72c-1.51-4.61,1.06-16.21,3.25-17.92c3.24-2.53,6.67-1.3,8.31-0.45l-4.45,22.33 C16.5,80.7,12.31,80.36,11.12,76.72z M117.94,59.61c-0.5,3.92-4.89,5.42-6.59,5.86l-6.41-20.35c1.53-1.04,4.52-2.55,7.01-2.27 C114.55,43.15,118.56,54.74,117.94,59.61z" opacity="0.7" fill="#E0E0E0"/>
  <path d="M36.32,113.32c-21.53-3.22-23.26-9.69-23.26-9.69s2.67-5,25.01-1.15 c21.78,3.75,23.51,8.84,23.51,8.84S59.8,116.84,36.32,113.32z" opacity="0.7" fill="#BCBCBC"/>
  <radialGradient id="SVGID_1_" cx="38.1779" cy="106.6317" gradientUnits="userSpaceOnUse" r="60.0911">
    <stop offset="0.3312" stop-color="#FDB408"/>
    <stop offset="0.5016" stop-color="#F1A20D"/>
    <stop offset="0.745" stop-color="#DB8116"/>
  </radialGradient>
  <path d="M29.16,49.11c0,0-7.76,38.65-7.98,40.39c-0.22,1.74-0.22,3.41,1.74,3.92s10.01,0.65,18.2,2.18 s13.78,3.99,15.08,4.42s2.76-0.36,3.55-2.97c0.8-2.61,9.35-40.02,9.35-40.02L49.97,44.11L29.16,49.11z" fill="url(#SVGID_1_)"/>
  <radialGradient id="SVGID_2_" cx="76.6478" cy="36.9108" gradientUnits="userSpaceOnUse" r="45.0124">
    <stop offset="0.6282" stop-color="#DB8116"/>
    <stop offset="0.7858" stop-color="#EE9D0E"/>
    <stop offset="0.9391" stop-color="#FDB408"/>
  </radialGradient>
  <path d="M69.32,74.1l3.76-19.35l24.69-14.71c0,0,11.25,34.83,11.73,36.33 c0.6,1.88-2.24,8.22-13.62,13.03s-19.04,2.73-20,0.89C74.93,88.46,69.32,74.1,69.32,74.1z" fill="url(#SVGID_2_)"/>
  <path d="M74.48,44.82l21.5-10.28l2.29,6.97c0,0-1.77,4.69-11.73,9.18c-8.67,3.91-13.68,2.97-13.68,2.97 L74.48,44.82z" fill="#F4D097"/>
  <path d="M30.55,42.78l-2.97,13.68c0,0,4.42-2.8,15.72-2.46c11.3,0.34,24.83,7.42,24.83,7.42l0.67-3.03 l2.46-11.18L30.55,42.78z" fill="#F4D097"/>
  <path d="M23.39,39.17c-0.82,6.61,2.45,11.17,10.37,12c7.02,0.73,11.02-2.77,14.94,0.82 c4.98,4.57-1.8,19.42-2.29,21.71s-0.82,5.14,1.55,5.79c2.37,0.65,4.07-2.31,4.73-4.9c1.63-6.37,4.65-16.16,8.49-17.14 c5.38-1.37,4.54,2.71,10.12,1.8c4.98-0.82,6.77-5.63,7.1-7.75c0.33-2.12-0.82-5.22-0.82-5.22s2.86-0.98,6.04-2.86 c3.18-1.88,3.9-3.39,6.37-4.73c3.59-1.96,8.9-1.42,11.43-5.79c2.77-4.82,2.53-15.22-7.8-16.25c-3.26-0.33-5.02,0.85-7.22,0.66 c-2.51-0.22-3.4-1.91-7.75-1.1c-4.36,0.81-5.39,4.04-7.92,4.69c-2.8,0.72-6.94,0.08-10.94,3.02s-4.98,6.77-4.98,6.77 s-3.07-1.27-7.26-0.98c-4.56,0.31-6.45,2.2-9.71,1.96S24.72,28.39,23.39,39.17z" fill="#FFEBC9"/>
  <path d="M87.75,56.38c-1.17-0.23-2.21,0.74-2.29,2.29c-0.08,1.55,0.54,2.44,1.32,2.48s1.63-0.54,1.94-2.01 C89.03,57.66,88.72,56.57,87.75,56.38z" fill="#FFE267"/>
  <path d="M85.8,69.51c-0.48,0.82,0.12,1.7,0.77,2.17s1.7,0.35,1.94-0.19c0.23-0.54,0.31-1.55-0.46-2.17 C87.28,68.7,86.31,68.66,85.8,69.51z" fill="#FFE267"/>
  <path d="M91.77,72.22c-1.05-0.12-1.9,0.74-1.9,2.52s0.66,2.45,1.63,2.52c1.12,0.08,1.74-1.74,1.78-2.83 C93.32,73.35,93.09,72.38,91.77,72.22z" fill="#FFE267"/>
  <path d="M93.74,82.21c-0.74-0.81-2.01-0.43-2.6,0.54c-0.48,0.79-0.58,2.01,0.12,2.52 c0.7,0.5,1.76,0.2,2.21-0.58C94.05,83.69,94.13,82.64,93.74,82.21z" fill="#FFE267"/>
  <path d="M44.13,62.11c-0.52,0.4-0.58,1.55,0,2.4c0.58,0.85,1.59,1.01,1.94,0.46 c0.35-0.54,0.19-1.55-0.12-2.17C45.64,62.19,44.94,61.49,44.13,62.11z" fill="#FFE267"/>
  <path d="M41.22,71.68c0.9,0.86,2.32,0.15,2.94-0.74c0.62-0.89,0.77-1.9,0.15-2.52s-1.8-0.5-2.67,0.12 C40.6,69.28,40.33,70.83,41.22,71.68z" fill="#FFE267"/>
  <path d="M37.7,73.42c-1.12-0.15-2.13,0.95-2.13,2.52c0,1.74,1.05,3.21,2.09,3.1 c1.08-0.12,1.74-1.47,1.78-2.83C39.48,74.86,38.86,73.58,37.7,73.42z" fill="#FFE267"/>
  <path d="M36.84,85.72c-0.8,0.14-1.24,1.01-1.09,2.16c0.14,1.09,0.79,2,1.91,1.8 c0.84-0.14,1.12-1.29,1.01-2.38C38.57,86.21,37.75,85.56,36.84,85.72z" fill="#FFE267"/>
  <path d="M11.02,57.84c1.22,0.89,2.33-1.5,4.05-2.44c1.7-0.93,3.27-1.55,2.55-2.78 c-0.72-1.22-3.11-1.05-4.77,0.11C11.19,53.9,9.48,56.72,11.02,57.84z" fill="#FFFFFF"/>
  <path d="M28.78,50.84c-1.33-0.28-1.94,0.56-2.16,1.61c-0.22,1.07,0.11,2.22,1.17,2.5s2.16-0.56,2.39-1.72 C30.39,52.09,29.98,51.09,28.78,50.84z" fill="#FFFFFF"/>
  <path d="M27.76,56.41c-1.97-0.38-2.67,2.39-3.6,7.43c-0.85,4.58-3.73,20.15-3.73,21.37s0,2.55,1.28,2.88 c1.28,0.33,2.38-0.82,2.85-3.06c0.42-1.99,4.25-24.25,4.47-25.75S28.82,56.61,27.76,56.41z" fill="#FFFFFF"/>
  <path d="M12.74,61.83c0.06,0.09,1.8-2.83,5.82-2.57c2.37,0.15,3.38,0.94,3.72,0.77 c0.34-0.17,1.03-2.7,0.81-3.25c-0.21-0.56-2.63-1.39-5.16-0.97C13.53,56.56,12.31,61.21,12.74,61.83z" fill="#B0B0B0"/>
  <path d="M5.31,80.84c-0.17,0.37,1.61,4.69,5.2,6.5c3.18,1.6,6.13,1.57,6.29,1.07 c0.13-0.39,0.43-1.63,0.47-2.91c0.03-0.84-1.68-0.27-5.52-1.46C6.91,82.56,5.48,80.45,5.31,80.84z" fill="#B0B0B0"/>
  <path d="M39.64,35.36c-1.42,0.39-4.23-0.91-6.96-0.65c-2.54,0.24-5.04,1.93-5.33,5.49 c-0.49,6.02,5.22,6.41,7.93,6.3c2.72-0.11,10.49-1.9,14.24,0.92c3.78,2.85,4.08,7.88,3.53,10.6s-3.67,13.1-4.08,14.45 c-0.76,2.55,0.54,2.83,1.47,1.3c0.92-1.52,4.18-13.31,5.6-15.92s2.93-4.56,5.49-4.84c4.08-0.43,4.02,1.36,8.48,1.36 c3.91,0,5.49-3.77,3.64-7.55c-2.45-5-10-5.43-10.92-5.92s-3.59-6.09-10.05-7.34S42.95,34.44,39.64,35.36z" fill="#FFFFFF"/>
  <path d="M58.56,31.71c0,0,1.63,1.19,3.11,2.74c0.94,0.98,2.05,2.99,3.36,3.37s2.98,0.18,5.78,1.42 c2.8,1.24,4.23,2.92,4.23,2.92s2.99-0.44,5.66-2.43c2.67-1.99,5.22-5.22,8.65-5.97c3.42-0.75,11.55-2,9.08-8.52 c-2.68-7.06-9.46-3.49-11.45-3.67s-3.37-2.49-8.4-1.18c-3.39,0.88-4.09,4.05-7.45,4.42c-3.36,0.37-5.79-0.32-8.71,1.86 C59.5,28.85,58.56,31.71,58.56,31.71z" fill="#FFFFFF"/>
  <path d="M58.57,19.68c-0.05,0-0.1,0-0.16-0.01c-0.91-0.09-1.57-0.89-1.49-1.8l1-10.57 c0.08-0.91,0.89-1.58,1.8-1.49c0.91,0.09,1.57,0.89,1.49,1.8l-1,10.57C60.13,19.04,59.41,19.68,58.57,19.68z" fill="#FF2A23"/>
  <path d="M53.96,22.23c-0.53,0-1.06-0.26-1.38-0.74l-7.28-10.95c-0.5-0.76-0.3-1.78,0.46-2.29 c0.76-0.5,1.78-0.3,2.29,0.46l7.28,10.95c0.5,0.76,0.3,1.78-0.46,2.29C54.59,22.14,54.28,22.23,53.96,22.23z" fill="#FF2A23"/>
  <path d="M49.79,26.08c-0.2,0-0.4-0.04-0.6-0.11l-10.82-4.23c-0.85-0.33-1.27-1.29-0.94-2.14 c0.33-0.85,1.29-1.27,2.14-0.94L50.4,22.9c0.85,0.33,1.27,1.29,0.94,2.14C51.08,25.69,50.45,26.08,49.79,26.08z" fill="#FF2A23"/>
  <path d="M72.75,67.28c-1.55,0.65-1.25,3.3,0,6.6c1.25,3.3,4.15,11.75,4.8,13.15c0.65,1.4,1.5,2.45,3.1,1.95 c1.6-0.5,0.95-2.45,0.4-4.4c-0.55-1.95-4.25-12.45-4.85-14.1C75.6,68.83,74.89,66.38,72.75,67.28z" fill="#FEFFFF"/>
  <path d="M18.36,101.41c0,0,1.73,4.76,18.62,7.18s20.89-0.32,20.89-0.32s-5.84-3.56-19.99-5.89 C22.96,99.92,18.36,101.41,18.36,101.41z" fill="#BCBCBC"/>
  <path d="M16.74,95.73c-1.48-0.19-2.36,1.13-2.71,1.87c-0.34,0.74-0.69,2.71,0.59,2.91s2.36-1.03,2.76-2.07 C17.77,97.4,17.87,95.88,16.74,95.73z" fill="#FFFFFF"/>
  <path d="M18.61,96.91c-0.16,1.48,1.58,1.63,3.94,1.67s10.47,0.73,15.76,1.72 c11.03,2.07,18.03,4.92,20.29,6.06c2.27,1.13,2.49-0.08,2.51-0.39c0.05-0.89-1.48-2.31-3.5-3.3c-1.56-0.76-6.99-3.94-18.47-5.71 c-11.12-1.72-16.84-1.23-18.03-1.18C19.94,95.83,18.71,96.03,18.61,96.91z" fill="#D4D4D4"/>
  <path d="M75.97,93.04c-0.22,0.72,0.97,1.73,3.68,2.23c3.56,0.65,10.13,0.12,17.22-2.7 c7.05-2.8,11.25-6.51,13.59-9.34c1.46-1.77,1.45-3.82,0.89-4.27c-0.71-0.57-1.1,1.2-2.71,3.13c-1.56,1.87-5.23,5.26-12.53,8.52 c-7.24,3.23-12.82,3.2-16.05,2.79C77.81,93.12,76.28,92.02,75.97,93.04z" fill="#9E9E9E"/>
  <path d="M73.33,96.24c-0.25,1.37,2.01,2.67,3.07,3.14c3.07,1.34,11.15,2.04,21.66-2.03 c13.64-5.29,16.52-11.36,17.43-13.07c0.93-1.76,0.53-2.57,0.1-2.8c-0.67-0.36-1.47,0.14-2.39,1.35c-2.85,3.73-6.79,7.62-16.18,11.46 s-15.88,3.68-20.23,2.28C75.59,96.18,73.59,94.84,73.33,96.24z" fill="#D5D5D5"/>
  <path d="M113.57,72.55c-0.47,1.16,0.41,2.49,0.57,2.54c0.16,0.05,0.16,0.05,0.16,0.05s4.89-2.33,7.97-6.03 c3.16-3.79,3.06-9.03,2.59-9.09c-0.36-0.05-1.26,4.26-5.68,8.43C115.51,71.91,114.17,71.04,113.57,72.55z" fill="#B0B0B0"/>
  <path d="M104.31,43.37l0.96,2.95c0,0,2.58-2.67,5.98-2.41c3.4,0.26,4.11,3.99,4.25,3.99 c0.78,0.01,0.79-5.1-2.51-6.42C108.98,39.86,104.31,43.37,104.31,43.37z" fill="#B0B0B0"/>
</svg>

<svg viewBox="0 0 128 128" xmlns="http://www.w3.org/2000/svg">
  <defs>
    <radialGradient id="SVGID_1_" cx="38.1779" cy="106.6317" gradientUnits="userSpaceOnUse" r="60.0911">
      <stop offset="0.3312" stop-color="#FDB408"/>
      <stop offset="0.5016" stop-color="#F1A20D"/>
      <stop offset="0.745" stop-color="#DB8116"/>
    </radialGradient>
    <radialGradient id="SVGID_2_" cx="76.6478" cy="36.9108" gradientUnits="userSpaceOnUse" r="45.0124">
      <stop offset="0.6282" stop-color="#DB8116"/>
      <stop offset="0.7858" stop-color="#EE9D0E"/>
      <stop offset="0.9391" stop-color="#FDB408"/>
    </radialGradient>
  </defs>
  <path d="M123.43,50.54 C120.99,40.99 118.87,36.79 114.52,35.98 C110.34,35.2 104.4,37.91 102.92,38.71 L102.9,38.64 C102.9,38.64 103.24,36.79 102.76,34.93 C102.28,33.07 100.36,32.32 99.81,32.46 L25.58,43.38 L25.08,46.33 L24.14,51.06 C21.72,50.62 15.33,49.77 11.88,52.31 C7.57,55.48 5.83,61.31 4.77,68.94 C3.71,76.57 4.39,80.56 6.81,83.15 C9.78,86.34 14.44,87.24 16.87,87.5 L15.47,94.5 C15.47,94.5 13.75,95.12 12.72,98 C11.69,100.88 13.06,103.63 13.06,103.63 C13.06,103.63 15.93,98.57 38.07,102.48 C60.54,106.45 61.58,111.32 61.58,111.32 C61.58,111.32 62.82,110.08 63.78,107.13 C64.74,104.18 62.96,101.09 62.96,101.09 L67.28,82.01 L71.6,93.81 C71.6,93.81 70,95.75 70.71,98.55 C71.56,101.92 79.55,108.78 99.35,101.32 C118.98,93.91 119.6,83.47 118.47,80.23 C117.7,78.01 115.11,77.42 115.11,77.42 L113.97,73.79 C115.08,73.15 116.79,72.03 119.37,70.07 C125.41,65.49 125.9,60.22 123.43,50.54 Z M11.12,76.72 C9.61,72.11 12.18,60.51 14.37,58.8 C17.61,56.27 21.04,57.5 22.68,58.35 L18.23,80.68 C16.5,80.7 12.31,80.36 11.12,76.72 Z M117.94,59.61 C117.44,63.53 113.05,65.03 111.35,65.47 L104.94,45.12 C106.47,44.08 109.46,42.57 111.95,42.85 C114.55,43.15 118.56,54.74 117.94,59.61 Z" fill="#FFFFFF" opacity="0.5"/>
  <path d="M123.43,50.54 C120.99,40.99 118.82,37.02 114.52,35.98 C108.55,34.53 102.9,38.64 102.9,38.64 C102.9,38.64 103.24,36.79 102.76,34.93 C102.28,33.07 100.36,32.32 99.81,32.46 L25.58,43.38 L25.08,46.33 L24.14,51.06 C21.72,50.62 15.33,49.77 11.88,52.31 C7.57,55.48 5.83,61.31 4.77,68.94 C3.71,76.57 4.39,80.56 6.81,83.15 C9.78,86.34 14.44,87.24 16.87,87.5 L15.47,94.5 C15.47,94.5 13.75,95.12 12.72,98 C11.69,100.88 13.06,103.63 13.06,103.63 C13.06,103.63 14.6,101.1 23.53,101.06 C27.09,101.04 31.77,101.35 38.07,102.48 C60.04,106.42 61.58,111.32 61.58,111.32 C61.58,111.32 62.82,110.08 63.78,107.13 C64.74,104.18 62.96,101.09 62.96,101.09 L67.28,82.01 L71.6,93.81 C71.6,93.81 70,95.75 70.71,98.55 C71.56,101.92 79.55,108.78 99.35,101.32 C118.98,93.91 119.6,83.47 118.47,80.23 C117.7,78.01 115.11,77.42 115.11,77.42 L113.97,73.79 C115.08,73.15 116.79,72.03 119.37,70.07 C125.41,65.49 125.9,60.22 123.43,50.54 Z M11.12,76.72 C9.61,72.11 12.18,60.51 14.37,58.8 C17.61,56.27 21.04,57.5 22.68,58.35 L18.23,80.68 C16.5,80.7 12.31,80.36 11.12,76.72 Z M117.94,59.61 C117.44,63.53 113.05,65.03 111.35,65.47 L104.94,45.12 C106.47,44.08 109.46,42.57 111.95,42.85 C114.55,43.15 118.56,54.74 117.94,59.61 Z" fill="#E0E0E0" opacity="0.7"/>
  <path d="M36.32,113.32 C14.79,110.1 13.06,103.63 13.06,103.63 C13.06,103.63 15.73,98.63 38.07,102.48 C59.85,106.23 61.58,111.32 61.58,111.32 C61.58,111.32 59.8,116.84 36.32,113.32 Z" fill="#BCBCBC" opacity="0.7"/>
  <path d="M29.16,49.11 C29.16,49.11 21.4,87.76 21.18,89.5 C20.96,91.24 20.96,92.91 22.92,93.42 C24.88,93.93 32.93,94.07 41.12,95.6 C49.31,97.13 54.9,99.59 56.2,100.02 C57.5,100.45 58.96,99.66 59.75,97.05 C60.55,94.44 69.1,57.03 69.1,57.03 L49.97,44.11 L29.16,49.11 Z" fill="url(#SVGID_1_)"/>
  <path d="M69.32,74.1 L73.08,54.75 L97.77,40.04 C97.77,40.04 109.02,74.87 109.5,76.37 C110.1,78.25 107.26,84.59 95.88,89.4 C84.5,94.21 76.84,92.13 75.88,90.29 C74.93,88.46 69.32,74.1 69.32,74.1 Z" fill="url(#SVGID_2_)"/>
  <path d="M74.48,44.82 L95.98,34.54 L98.27,41.51 C98.27,41.51 96.5,46.2 86.54,50.69 C77.87,54.6 72.86,53.66 72.86,53.66 L74.48,44.82 Z" fill="#F4D097"/>
  <path d="M30.55,42.78 L27.58,56.46 C27.58,56.46 32,53.66 43.3,54 C54.6,54.34 68.13,61.42 68.13,61.42 L68.8,58.39 L71.26,47.21 L30.55,42.78 Z" fill="#F4D097"/>
  <path d="M23.39,39.17 C22.57,45.78 25.84,50.34 33.76,51.17 C40.78,51.9 44.78,48.4 48.7,51.99 C53.68,56.56 46.9,71.41 46.41,73.7 C45.92,75.99 45.59,78.84 47.96,79.49 C50.33,80.14 52.03,77.18 52.69,74.59 C54.32,68.22 57.34,58.43 61.18,57.45 C66.56,56.08 65.72,60.16 71.3,59.25 C76.28,58.43 78.07,53.62 78.4,51.5 C78.73,49.38 77.58,46.28 77.58,46.28 C77.58,46.28 80.44,45.3 83.62,43.42 C86.8,41.54 87.52,40.03 89.99,38.69 C93.58,36.73 98.89,37.27 101.42,32.9 C104.19,28.08 103.95,17.68 93.62,16.65 C90.36,16.32 88.6,17.5 86.4,17.31 C83.89,17.09 83,15.4 78.65,16.21 C74.29,17.02 73.26,20.25 70.73,20.9 C67.93,21.62 63.79,20.98 59.79,23.92 C55.79,26.86 54.81,30.69 54.81,30.69 C54.81,30.69 51.74,29.42 47.55,29.71 C42.99,30.02 41.1,31.91 37.84,31.67 C34.58,31.43 24.72,28.39 23.39,39.17 Z" fill="#FFEBC9"/>
  <path d="M87.75,56.38 C86.58,56.15 85.54,57.12 85.46,58.67 C85.38,60.22 86,61.11 86.78,61.15 C87.56,61.19 88.41,60.61 88.72,59.14 C89.03,57.66 88.72,56.57 87.75,56.38 Z" fill="#FFE267"/>
  <path d="M85.8,69.51 C85.32,70.33 85.92,71.21 86.57,71.68 C87.22,72.15 88.27,72.03 88.51,71.49 C88.74,70.95 88.82,69.94 88.05,69.32 C87.28,68.7 86.31,68.66 85.8,69.51 Z" fill="#FFE267"/>
  <path d="M91.77,72.22 C90.72,72.1 89.87,72.96 89.87,74.74 C89.87,76.52 90.53,77.19 91.5,77.26 C92.62,77.34 93.24,75.52 93.28,74.43 C93.32,73.35 93.09,72.38 91.77,72.22 Z" fill="#FFE267"/>
  <path d="M93.74,82.21 C93,81.4 91.73,81.78 91.14,82.75 C90.66,83.54 90.56,84.76 91.26,85.27 C91.96,85.77 93.02,85.47 93.47,84.69 C94.05,83.69 94.13,82.64 93.74,82.21 Z" fill="#FFE267"/>
  <path d="M44.13,62.11 C43.61,62.51 43.55,63.66 44.13,64.51 C44.71,65.36 45.72,65.52 46.07,64.97 C46.42,64.43 46.26,63.42 45.95,62.8 C45.64,62.19 44.94,61.49 44.13,62.11 Z" fill="#FFE267"/>
  <path d="M41.22,71.68 C42.12,72.54 43.54,71.83 44.16,70.94 C44.78,70.05 44.93,69.04 44.31,68.42 C43.69,67.8 42.51,67.92 41.64,68.54 C40.6,69.28 40.33,70.83 41.22,71.68 Z" fill="#FFE267"/>
  <path d="M37.7,73.42 C36.58,73.27 35.57,74.37 35.57,75.94 C35.57,77.68 36.62,79.15 37.66,79.04 C38.74,78.92 39.4,77.57 39.44,76.21 C39.48,74.86 38.86,73.58 37.7,73.42 Z" fill="#FFE267"/>
  <path d="M36.84,85.72 C36.04,85.86 35.6,86.73 35.75,87.88 C35.89,88.97 36.54,89.88 37.66,89.68 C38.5,89.54 38.78,88.39 38.67,87.3 C38.57,86.21 37.75,85.56 36.84,85.72 Z" fill="#FFE267"/>
  <path d="M11.02,57.84 C12.24,58.73 13.35,56.34 15.07,55.4 C16.77,54.47 18.34,53.85 17.62,52.62 C16.9,51.4 14.51,51.57 12.85,52.73 C11.19,53.9 9.48,56.72 11.02,57.84 Z" fill="#FFFFFF"/>
  <path d="M28.78,50.84 C27.45,50.56 26.84,51.4 26.62,52.45 C26.4,53.52 26.73,54.67 27.79,54.95 C28.85,55.23 29.95,54.39 30.18,53.23 C30.39,52.09 29.98,51.09 28.78,50.84 Z" fill="#FFFFFF"/>
  <path d="M27.76,56.41 C25.79,56.03 25.09,58.8 24.16,63.84 C23.31,68.42 20.43,83.99 20.43,85.21 C20.43,86.43 20.43,87.76 21.71,88.09 C22.99,88.42 24.09,87.27 24.56,85.03 C24.98,83.04 28.81,60.78 29.03,59.28 C29.25,57.78 28.82,56.61 27.76,56.41 Z" fill="#FFFFFF"/>
  <path d="M12.74,61.83 C12.8,61.92 14.54,59 18.56,59.26 C20.93,59.41 21.94,60.2 22.28,60.03 C22.62,59.86 23.31,57.33 23.09,56.78 C22.88,56.22 20.46,55.39 17.93,55.81 C13.53,56.56 12.31,61.21 12.74,61.83 Z" fill="#B0B0B0"/>
  <path d="M5.31,80.84 C5.14,81.21 6.92,85.53 10.51,87.34 C13.69,88.94 16.64,88.91 16.8,88.41 C16.93,88.02 17.23,86.78 17.27,85.5 C17.3,84.66 15.59,85.23 11.75,84.04 C6.91,82.56 5.48,80.45 5.31,80.84 Z" fill="#B0B0B0"/>
  <path d="M39.64,35.36 C38.22,35.75 35.41,34.45 32.68,34.71 C30.14,34.95 27.64,36.64 27.35,40.2 C26.86,46.22 32.57,46.61 35.28,46.5 C38,46.39 45.77,44.6 49.52,47.42 C53.3,50.27 53.6,55.3 53.05,58.02 C52.5,60.74 49.38,71.12 48.97,72.47 C48.21,75.02 49.51,75.3 50.44,73.77 C51.36,72.25 54.62,60.46 56.04,57.85 C57.46,55.24 58.97,53.29 61.53,53.01 C65.61,52.58 65.55,54.37 70.01,54.37 C73.92,54.37 75.5,50.6 73.65,46.82 C71.2,41.82 63.65,41.39 62.73,40.9 C61.81,40.41 59.14,34.81 52.68,33.56 C46.22,32.31 42.95,34.44 39.64,35.36 Z" fill="#FFFFFF"/>
  <path d="M58.56,31.71 C58.56,31.71 60.19,32.9 61.67,34.45 C62.61,35.43 63.72,37.44 65.03,37.82 C66.34,38.2 68.01,38 70.81,39.24 C73.61,40.48 75.04,42.16 75.04,42.16 C75.04,42.16 78.03,41.72 80.7,39.73 C83.37,37.74 85.92,34.51 89.35,33.76 C92.77,33.01 100.9,31.76 98.43,25.24 C95.75,18.18 88.97,21.75 86.98,21.57 C84.99,21.39 83.61,19.08 78.58,20.39 C75.19,21.27 74.49,24.44 71.13,24.81 C67.77,25.18 65.34,24.49 62.42,26.67 C59.5,28.85 58.56,31.71 58.56,31.71 Z" fill="#FFFFFF"/>
  <path d="M58.57,19.68 C58.52,19.68 58.47,19.68 58.41,19.67 C57.5,19.58 56.84,18.78 56.92,17.87 L57.92,7.3 C58,6.39 58.81,5.72 59.72,5.81 C60.63,5.9 61.29,6.7 61.21,7.61 L60.21,18.18 C60.13,19.04 59.41,19.68 58.57,19.68 Z" fill="#FF2A23"/>
  <path d="M53.96,22.23 C53.43,22.23 52.9,21.97 52.58,21.49 L45.3,10.54 C44.8,9.78 45,8.76 45.76,8.25 C46.52,7.75 47.54,7.95 48.05,8.71 L55.33,19.66 C55.83,20.42 55.63,21.44 54.87,21.95 C54.59,22.14 54.28,22.23 53.96,22.23 Z" fill="#FF2A23"/>
  <path d="M49.79,26.08 C49.59,26.08 49.39,26.04 49.19,25.97 L38.37,21.74 C37.52,21.41 37.1,20.45 37.43,19.6 C37.76,18.75 38.72,18.33 39.57,18.66 L50.4,22.9 C51.25,23.23 51.67,24.19 51.34,25.04 C51.08,25.69 50.45,26.08 49.79,26.08 Z" fill="#FF2A23"/>
  <path d="M72.75,67.28 C71.2,67.93 71.5,70.58 72.75,73.88 C74,77.18 76.9,85.63 77.55,87.03 C78.2,88.43 79.05,89.48 80.65,88.98 C82.25,88.48 81.6,86.53 81.05,84.58 C80.5,82.63 76.8,72.13 76.2,70.48 C75.6,68.83 74.89,66.38 72.75,67.28 Z" fill="#FEFFFF"/>
  <path d="M18.36,101.41 C18.36,101.41 20.09,106.17 36.98,108.59 C53.87,111.01 57.87,108.27 57.87,108.27 C57.87,108.27 52.03,104.71 37.88,102.38 C22.96,99.92 18.36,101.41 18.36,101.41 Z" fill="#BCBCBC"/>
  <path d="M16.74,95.73 C15.26,95.54 14.38,96.86 14.03,97.6 C13.69,98.34 13.34,100.31 14.62,100.51 C15.9,100.71 16.98,99.48 17.38,98.44 C17.77,97.4 17.87,95.88 16.74,95.73 Z" fill="#FFFFFF"/>
  <path d="M18.61,96.91 C18.45,98.39 20.19,98.54 22.55,98.58 C24.91,98.62 33.02,99.31 38.31,100.3 C49.34,102.37 56.34,105.22 58.6,106.36 C60.87,107.49 61.09,106.28 61.11,105.97 C61.16,105.08 59.63,103.66 57.61,102.67 C56.05,101.91 50.62,98.73 39.14,96.96 C28.02,95.24 22.3,95.73 21.11,95.78 C19.94,95.83 18.71,96.03 18.61,96.91 Z" fill="#D4D4D4"/>
  <path d="M75.97,93.04 C75.75,93.76 76.94,94.77 79.65,95.27 C83.21,95.92 89.78,95.39 96.87,92.57 C103.92,89.77 108.12,86.06 110.46,83.23 C111.92,81.46 111.91,79.41 111.35,78.96 C110.64,78.39 110.25,80.16 108.64,82.09 C107.08,83.96 103.41,87.35 96.11,90.61 C88.87,93.84 83.29,93.81 80.06,93.4 C77.81,93.12 76.28,92.02 75.97,93.04 Z" fill="#9E9E9E"/>
  <path d="M73.33,96.24 C73.08,97.61 75.34,98.91 76.4,99.38 C79.47,100.72 87.55,101.42 98.06,97.35 C111.7,92.06 114.58,85.99 115.49,84.28 C116.42,82.52 116.02,81.71 115.59,81.48 C114.92,81.12 114.12,81.62 113.2,82.83 C110.35,86.56 106.41,90.45 97.02,94.29 C87.63,98.13 81.14,97.97 76.79,96.57 C75.59,96.18 73.59,94.84 73.33,96.24 Z" fill="#D5D5D5"/>
  <path d="M113.57,72.55 C113.1,73.71 113.98,75.04 114.14,75.09 C114.3,75.14 114.3,75.14 114.3,75.14 C114.3,75.14 119.19,72.81 122.27,69.11 C125.43,65.32 125.33,60.08 124.86,60.02 C124.5,59.97 123.6,64.28 119.18,68.45 C115.51,71.91 114.17,71.04 113.57,72.55 Z" fill="#B0B0B0"/>
  <path d="M104.31,43.37 L105.27,46.32 C105.27,46.32 107.85,43.65 111.25,43.91 C114.65,44.17 115.36,47.9 115.5,47.9 C116.28,47.91 116.29,42.8 112.99,41.48 C108.98,39.86 104.31,43.37 104.31,43.37 Z" fill="#B0B0B0"/>
</svg>
